X: 2119
T: Ömrümün Gülüsün
C: Haydar Tatlıyay
O: Turkey
F: http://compmusic.upf.edu/node/140
N: ussak--sarki--curcuna--omrumun_gulusun--haydar_tatliyay
N: makam= ussak
N: form= sarki
N: usul= curcuna = 10/8
M: 10/8
L: 1/16
K: C _2/4B   
Q: 1/4=156
%%MIDI tuningsystem comma53
G6A4A2 B2G2 FED2  | c2d2 e2e2 d2e2 dcd4z2  | \
w:  Öm rü mün   |  gü *  *  lü *  sün   | 
g2f2 e2d2 c2B2 A2G2 e2ed  | 
w:  gül   | 
d8-d2d2 c2d4z2  | d2e2 d2c2 B2c2 d2c2 B2A2  | \
w:  ki   |  gül   | 
c2BA B8 A2cB AGA2  | 
w:  ki   | 
z2GA B2c2 d2e2 d2c2 B2AG  | d18z2  | \
w:  gü *  *  *  *  *  *  *  *  le  |  yim    | 
d2e2 d2c2 B2c2 d2c2 B2A2  | 
w:  SAZ  | 
B2c2 B2A2 GdcB AGA4z2  | G6A4A2 B2G2 FED2  | \
w:   |  Öm rü mün   | 
c2d2 e2e2 d2e2 dcd4z2  | 
w:  gü *  *  lü *  sün   | 
g2f2 e2d2 c2B2 A2G2 e2ed  | d8-d2d2 c2d4z2  | \
w:  gül   |  ki   | 
d2e2 d2c2 B2c2 d2c2 B2A2  | 
w:  gül   | 
c2BA B8 A2cB AGA2  | z2GA B2c2 d2e2 d2c2 B2AG  | 
w:  ki   |  gü *  *  *  *  *  *  *  *  le  | 
d18z2  | d2e2 d2c2 B2c2 d2c2 B2A2  | \
w:  yim    |  SAZ  | 
B2c2 B2A2 G2fe ded4z2  | 
w:   | 
e4 d2e2 f2e2 d2dc BABc  | d8-d2d2 edcB AGA2  | 
w:  Sev *  mek  *  gü *  nah  |  sa   | 
A6B4c4d4z2  | d2e2 d2c2 B2c2 d2c2 B2A2  | \
w:  söy le  de   |  bi *  *  *  *  *  *  *  *  le  | 
B6B2 A2cB AGA4z2  | 
w:  yim   | 
e4 d2e2 f2e2 d2dc BAB2  | d4 c2B2 A2d2 edc2 B2BA  | 
w:  söy *  le  *  de   |  bi *  *  *  *  *  *  *  *  le  | 
A18z2  | d2e2 d2c2 B2c2 d2c2 B2A2  | \
w:  yim   |  SAZ  | 
B2c2 B2A2 G2fe ded4z2  | 
w:   | 
e4 d2e2 f2e2 d2dc BABc  | d8-d2d2 edcB AGA2  | 
w:  Sev *  mek  *  gü *  nah  |  sa   | 
A6B4c4d4z2  | d2e2 d2c2 B2c2 d2c2 B2A2  | \
w:  söy le  de   |  bi *  *  *  *  *  *  *  *  le  | 
B6B2 A2cB AGA4z2  | 
w:  yim   | 
e4 d2e2 f2e2 d2dc BAB2  | d4 c2B2 A2d2 edc2 B2BA  | 
w:  söy *  le  *  de   |  bi *  *  *  *  *  *  *  *  le  | 
A18z2  | A2_7/8B2 ^c2d2 e2fe dcd2 c2B2  | \
w:  yim   |  SAZ  | 
d^c_7/8BA B2c2 d2cB AGA4z2  | 
w:   | 
d6d4d2 ^c2d2 c2_7/8B2  | ^c2_7/8B2 c2B2 A2A2 BAA6  | \
w:  Sen siz  ya *  şa  |  mak *  *  *  *  tan   | 
g2^3/4f2 g2f2 e2e2 =fefe d^cd2  | 
w:  i *  *  *  *  se   | 
e2g2 f2e2 d2d2 ^c2dc _1/4B^AB2  | \
w:  ben   | 
z4 d3^c =B2c2 d2e4ed  | 
w:  ö *  *  *  *  *  le  | 
d18z2  | e2g2 f2e2 d2c2 B2A4G2  | d2ed d14z2  | \
w:  yim   |  ö *  *  *  *  *  *  *  le  |  yim   | 
d2e2 d2c2 B2c2 d2c2 B2A2  | 
w:  SAZ  | 
B2c2 B2A2 G2fe ded4z2  | e4 d2e2 f2e2 d2dc BABc  | 
w:   |  Sev *  mek  *  gü *  nah  | 
d8-d2d2 edcB AGA2  | A6B4c4d4z2  | d2e2 d2c2 B2c2 d2c2 B2A2  | 
w:  sa   |  söy le  de   |  bi *  *  *  *  *  *  *  *  le  | 
B6B2 A2cB AGA4z2  | e4 d2e2 f2e2 d2dc BAB2  | \
w:  yim   |  söy *  le  *  de   | 
d4 c2B2 A2d2 edc2 B2BA  | 
w:  bi *  *  *  *  *  *  *  *  le  | 
A18z2  | d2e2 d2c2 B2c2 d2c2 B2A2  | \
w:  yim   |  SAZ  | 
B2c2 B2A2 G2fe ded4z2  | 
w:   | 
e4 d2e2 f2e2 d2dc BABc  | d8-d2d2 edcB AGA2  | 
w:  Sev *  mek  *  gü *  nah  |  sa   | 
A6B4c4d4z2  | d2e2 d2c2 B2c2 d2c2 B2A2  | \
w:  söy le  de   |  bi *  *  *  *  *  *  *  *  le  | 
B6B2 A2cB AGA4z2  | 
w:  yim   | 
e4 d2e2 f2e2 d2dc BAB2  | d4 c2B2 A2d2 edc2 B2BA  | 
w:  söy *  le  *  de   |  bi *  *  *  *  *  *  *  *  le  | 
A18z2  | |


